!!!XEN: Third song
!!!AGN: Mide' (Grand Medicine) initiation song of the sixth degree
!!!COM: Anonymous
!!!CNT: Native American -- Ojibway
!!!TXO: Ojibway
!!!MLC: recorded in Washington, D.C., but the singer lived on the Bois Fort reservation, northern Minnesota, U.S.A.
!!!MRD: 1907-1909///
!!!MPN: De'bwawen'dunk ("Eating noisily")
**kern
*MM152
*Imale
*k[b-]
*clefF4
*M3/4
8d
8.d
16d
=1
8.d
16d
8.d
16d
8.c
16c
=2
4.A
8c
8.c
16c
=3
*M4/4
4.c
8c
8.c
16c
8.c
16c
=4
*M3/4
4.A
8A
8.A
16A
=5
2G
8.F
16D
=6
4.D
8F
4F
=7
4.G
8A
8.A
16A
=8
2G
8.F
16D
=9
4.D
8F
4F
=10
2D
8.D
16D
=11
2D
8.A
16A
=12
8A
16A
16A
8.A
16A
4A
=13
8.A
16A
8.A
16B-
8A
16A
16A
=14
2G
8.F
16D
=15
4.D
==
*-
!!!OCL: Frances Densmore
!!!YOR: Chippewa [i.e., Ojibway] Music, Bulletin 45 of the Bureau of American Ethnology, Smitsonian Institution
!!!ONM: 18
!!!PPG: 58
!!!PUB: published
!!!PPR: Government Printing Office
!!!PPP: Washington, D.C.
!!!PDT: 1909///
!!!EST: missing clef changes, text, drum tempo, and drum part
!!!YEC: Copyright 1998 Paul von Hippel
!!!YEM: Rights to all derivate electronic formats reserved.
!!!EFL: 4/42
